packages/foundations/assets/icons/functional/images/business & payment/discount_32.svg

<svg width="32" height="32" viewBox="0 0 32 32" fill="none" xmlns="http://www.w3.org/2000/svg">
<g clip-path="url(#clip0_184_29)">
<path fill-rule="evenodd" clip-rule="evenodd" d="M16.0005 2.375C16.6375 2.375 17.2955 2.608 17.7205 3.125L19.4415 5.219C19.4985 5.288 19.6265 5.323 19.7235 5.296L22.3095 4.594C22.4955 4.543 22.6915 4.531 22.8825 4.531C23.9605 4.531 25.0075 5.3 25.0805 6.563L25.2405 9.281C25.2435 9.344 25.3005 9.412 25.3675 9.437L27.9485 10.407C28.3567 10.56 28.7091 10.8328 28.9593 11.1898C29.2095 11.5468 29.3459 11.9711 29.3505 12.407C29.3505 12.812 29.2245 13.251 29.0005 13.594L27.5025 15.875C27.4834 15.9083 27.4733 15.9461 27.4733 15.9845C27.4733 16.0229 27.4834 16.0607 27.5025 16.094L28.9995 18.344C29.2415 18.707 29.3505 19.125 29.3505 19.531C29.3505 20.406 28.7775 21.251 27.9485 21.563L25.3685 22.531C25.2985 22.557 25.2425 22.651 25.2365 22.75L25.0805 25.406C25.0135 26.565 24.0825 27.438 22.8825 27.438C22.6292 27.4283 22.3777 27.391 22.1325 27.327L19.6945 26.664C19.5665 26.63 19.4925 26.657 19.4295 26.734L17.7215 28.812C17.5126 29.0664 17.25 29.2713 16.9523 29.4119C16.6547 29.5525 16.3296 29.6253 16.0005 29.625C15.3315 29.625 14.6885 29.348 14.2805 28.844L12.5595 26.719C12.5035 26.649 12.4335 26.629 12.3365 26.656L9.83947 27.335C9.60329 27.3937 9.36168 27.4279 9.11847 27.437C7.91348 27.437 6.98747 26.559 6.92048 25.407L6.76248 22.719C6.76166 22.6784 6.74889 22.6389 6.72578 22.6054C6.70266 22.572 6.67021 22.5461 6.63248 22.531L4.05248 21.563C3.31248 21.285 2.65048 20.501 2.65048 19.531C2.65048 19.125 2.75948 18.707 3.00048 18.344L4.47047 16.137C4.53747 16.036 4.49448 15.869 4.43248 15.774L3.00048 13.594C2.77363 13.2391 2.65193 12.8272 2.64948 12.406C2.64948 11.52 3.21448 10.72 4.05148 10.406L6.60448 9.448C6.69948 9.412 6.75648 9.344 6.76148 9.25L6.91948 6.562C6.98748 5.388 7.94347 4.532 9.11747 4.532C9.30847 4.532 9.50447 4.543 9.69047 4.594L12.2765 5.296C12.3735 5.323 12.4875 5.305 12.5585 5.219L14.2785 3.125C14.6915 2.623 15.3625 2.375 15.9995 2.375H16.0005ZM15.8405 4.375L14.1205 6.469C13.7085 6.97 13.0375 7.25 12.4005 7.25C12.2085 7.25 12.0215 7.238 11.8265 7.187L9.21047 6.516C9.09247 6.486 8.93448 6.586 8.92848 6.689L8.76847 9.376C8.71847 10.219 8.16848 10.981 7.36648 11.282L4.78647 12.251C4.65048 12.302 4.62348 12.43 4.69048 12.532L6.18848 14.813C6.43648 15.193 6.53848 15.563 6.53848 15.97C6.53848 16.376 6.43648 16.778 6.18848 17.157L4.69048 19.439C4.67454 19.4628 4.66432 19.49 4.66061 19.5184C4.6569 19.5468 4.65981 19.5757 4.6691 19.6028C4.67839 19.6299 4.69382 19.6545 4.71418 19.6746C4.73454 19.6948 4.75928 19.71 4.78647 19.719L7.36648 20.689C7.75829 20.8389 8.09877 21.0982 8.34734 21.4361C8.59591 21.7741 8.74209 22.1763 8.76847 22.595L8.92247 25.189C8.93447 25.385 9.05647 25.509 9.33247 25.437L11.7085 24.813C11.9866 24.7383 12.2726 24.6964 12.5605 24.688C13.1385 24.688 13.6975 24.985 14.1215 25.501L15.8415 27.595C15.9415 27.716 16.0615 27.716 16.1615 27.595L17.8815 25.501C18.2935 24.999 18.9645 24.688 19.4115 24.688C19.6975 24.688 20.0005 24.738 20.1755 24.782L22.8215 25.462C22.9755 25.502 23.0665 25.425 23.0745 25.282L23.2345 22.595C23.2845 21.752 23.8345 20.987 24.6365 20.688L27.1535 19.751C27.2935 19.699 27.3485 19.511 27.2805 19.407L25.8145 17.157C25.5675 16.777 25.4645 16.407 25.4645 16.001C25.4645 15.595 25.5645 15.191 25.8145 14.813L27.2425 12.652C27.3625 12.471 27.3645 12.306 27.1615 12.23L24.6365 11.282C24.2447 11.1321 23.9042 10.8728 23.6556 10.5349C23.407 10.1969 23.2609 9.79467 23.2345 9.376L23.0745 6.688C23.0675 6.573 22.9395 6.478 22.7925 6.516L20.1755 7.189C19.9805 7.239 19.7935 7.251 19.6015 7.251C18.9645 7.251 18.2935 6.971 17.8815 6.47L16.1615 4.376C16.0615 4.254 15.9415 4.254 15.8415 4.376L15.8405 4.375ZM10.5525 13.031C10.5525 11.937 11.4445 11.062 12.5595 11.062C13.6745 11.062 14.5665 11.938 14.5665 13.032C14.5665 14.125 13.6745 15 12.5595 15C11.4445 15 10.5525 14.125 10.5525 13.031ZM10.9985 19.906C10.9985 19.656 11.0935 19.406 11.2855 19.219L19.3145 11.375C19.5055 11.188 19.7605 11.062 20.0145 11.062C20.4475 11.062 21.0025 11.445 21.0025 12.062C21.0025 12.312 20.9075 12.562 20.7155 12.75L12.7185 20.594C12.5208 20.7808 12.2573 20.8818 11.9855 20.875C11.857 20.8763 11.7295 20.8523 11.6104 20.8043C11.4912 20.7563 11.3827 20.6852 11.291 20.5952C11.1993 20.5052 11.1263 20.398 11.0761 20.2797C11.0259 20.1615 10.9995 20.0345 10.9985 19.906ZM17.9125 18.906C17.9125 17.844 18.8045 16.938 19.9195 16.938C21.0345 16.938 21.9265 17.844 21.9265 18.906C21.9265 20 21.0345 20.875 19.9195 20.875C18.8045 20.875 17.9125 20 17.9125 18.906Z" fill="#1A1C1F"/>
</g>
<defs>
<clipPath id="clip0_184_29">
<rect width="32" height="32" fill="white"/>
</clipPath>
</defs>
</svg>

<svg xmlns="http://www.w3.org/2000/svg" width="32" height="32" fill="none"><g clip-path="url(#a)"><path fill="#1A1C1F" fill-rule="evenodd" d="M16 2.375c.637 0 1.296.233 1.72.75l1.722 2.094c.056.069.184.104.282.077l2.585-.702c.186-.051.383-.063.573-.063 1.078 0 2.125.769 2.198 2.032l.16 2.718c.004.063.06.131.128.156l2.58.97a2.16 2.16 0 0 1 1.402 2c0 .405-.126.844-.35 1.187l-1.497 2.281a.22.22 0 0 0 0 .219L29 18.344c.241.363.35.781.35 1.187 0 .875-.573 1.72-1.402 2.032l-2.58.968c-.07.026-.125.12-.131.219l-.156 2.656c-.067 1.159-.998 2.032-2.198 2.032a3.5 3.5 0 0 1-.75-.111l-2.438-.663c-.128-.034-.203-.007-.265.07l-1.709 2.078a2.22 2.22 0 0 1-1.72.813c-.67 0-1.313-.277-1.72-.781l-1.722-2.125c-.055-.07-.125-.09-.223-.063l-2.497.679a3.5 3.5 0 0 1-.72.102c-1.206 0-2.132-.878-2.199-2.03l-.158-2.688a.21.21 0 0 0-.13-.188l-2.58-.968c-.74-.278-1.402-1.062-1.402-2.032 0-.406.11-.824.35-1.187l1.47-2.207c.067-.101.024-.268-.038-.363L3 13.594a2.23 2.23 0 0 1-.35-1.188c0-.886.564-1.686 1.401-2l2.553-.958c.095-.036.152-.104.157-.198l.158-2.688c.068-1.174 1.024-2.03 2.198-2.03.191 0 .387.011.573.062l2.587.702c.097.027.21.009.282-.077l1.72-2.094c.412-.502 1.084-.75 1.72-.75zm-.16 2-1.72 2.094c-.411.501-1.082.781-1.72.781-.191 0-.379-.012-.574-.063L9.21 6.516c-.118-.03-.276.07-.282.173l-.16 2.687c-.05.843-.6 1.605-1.402 1.906l-2.58.969c-.136.051-.163.179-.096.281l1.498 2.281c.248.38.35.75.35 1.157 0 .406-.102.808-.35 1.187L4.69 19.439a.186.186 0 0 0 .096.28l2.58.97a2.19 2.19 0 0 1 1.402 1.906l.154 2.594c.012.196.134.32.41.248l2.377-.624a3.7 3.7 0 0 1 .851-.125c.579 0 1.137.297 1.561.813l1.72 2.094c.1.121.22.121.32 0l1.72-2.094c.413-.502 1.084-.813 1.53-.813.287 0 .59.05.764.094l2.646.68c.154.04.245-.037.253-.18l.16-2.687c.05-.843.6-1.608 1.402-1.907l2.518-.937c.14-.052.195-.24.127-.344l-1.466-2.25c-.248-.38-.35-.75-.35-1.156s.1-.81.35-1.188l1.427-2.161c.12-.181.122-.346-.08-.422l-2.525-.948a2.19 2.19 0 0 1-1.402-1.906l-.16-2.688c-.008-.115-.136-.21-.282-.172l-2.617.673c-.195.05-.382.062-.574.062-.637 0-1.308-.28-1.72-.781l-1.72-2.094c-.1-.122-.22-.122-.32 0zm-5.287 8.656c0-1.094.891-1.969 2.006-1.969 1.116 0 2.008.876 2.008 1.97S13.673 15 12.558 15s-2.006-.875-2.006-1.969m.445 6.875c0-.25.096-.5.288-.687l8.028-7.844c.192-.187.447-.313.7-.313.434 0 .989.383.989 1 0 .25-.096.5-.288.688l-7.996 7.844a1.03 1.03 0 0 1-.733.281.977.977 0 0 1-.988-.969m6.915-1c0-1.062.892-1.968 2.006-1.968 1.116 0 2.008.906 2.008 1.968 0 1.094-.892 1.969-2.008 1.969-1.114 0-2.006-.875-2.006-1.969" clip-rule="evenodd"/></g><defs><clipPath id="a"><path fill="#fff" d="M0 0h32v32H0z"/></clipPath></defs></svg>
